X: 10
T: MENSTRIE CASTLE
C: Andrew Rankine
R: reel, polka
B: "The Complete Andrew Rankine Collection of Scottish Country Dance Tunes" p.13
Z: 2017 John Chambers <jc:trillian.mit.edu>
M: 2/4
L: 1/8
K: D
A |\
"D"dA d>e | f2 f>A | fA f>g | "A7"fe e>d |\
cA ce | a2 a>g | "D"fA "A7"f>e | "D"d2- d :|
|: e/f/ |\
"G"g>B dg | "D"f>A df | "A7"eA ag | "D"f>A "D7"df |\
"G"g>B dg | "D"f>A df | "A7"eA f>e | "D"d2- d :|

%%sep 1 1 500

